X:0168b
T:"For Freedom and for Erin"   (air?)    0168
C:after Sg't.  J. O'Neill
C:boldly
B:O'Neill's Music Of Ireland (The 1850)   Lyon & Healy, Chicago   1903 ed.
N:Transposed from Bb                       fermatae to taste
Z:FROM O'NEILL'S TO NOTEWORTHY, FROM NOTEWORTHY TO ABC, MIDI AND .TXT BY VINCE BRENNAN 6-21-03 (HTTP://WWW.SOSYOURMOM.COM)
I:abc2nwc
M:6/8
L:1/8
K:D
"_vb"F|B2d c2B|A2^G F2G|A2A A2c|e3c2c|
B2d c2B|A2^G HF2f|f2e d2c|B3"^Fine"B2||
c|d2d d2B|e2e e2c|d2d d2B|e3c2c|
d2d d2B|e2e He2(^d/2e/2)|f2e d2c|B3f^DC al Fine"f2|]
